img/footer-logo.svg

<svg width="122" height="49" viewBox="0 0 122 49" fill="none" xmlns="http://www.w3.org/2000/svg">
<g filter="url(#filter0_d)">
<path fill-rule="evenodd" clip-rule="evenodd" d="M19.5197 1.05737H19.3509L4 2.71895V31.4945L19.3509 40.8382L34.7018 31.4945V2.71895L19.5197 1.05737ZM81.0183 2.62185H79.0876V15.7311H81.0183V2.62185ZM44.8619 2.63264V7.76843C45.6131 6.9864 46.6386 6.5436 47.7105 6.53843C48.6823 6.47908 49.6329 6.84495 50.3253 7.54479C51.0177 8.24462 51.3866 9.21244 51.3399 10.2068V15.7634H49.367V10.4658C49.4231 9.94897 49.2754 9.43059 48.9566 9.02553C48.6377 8.62047 48.174 8.36218 47.6683 8.3079H47.3518C46.3456 8.36979 45.4321 8.9295 44.9041 9.80764V15.7634H42.8995V2.63264H44.8619ZM81.0183 31.4837H79.2775V30.0595C78.4828 31.1353 77.23 31.7538 75.9119 31.7211C73.4751 31.5528 71.5825 29.4822 71.5825 26.9845C71.5825 24.4867 73.4751 22.4162 75.9119 22.2479C77.1195 22.2052 78.2818 22.7203 79.0771 23.6505V18.3205H81.0183V31.4837ZM51.0656 30.0595C51.263 30.0515 51.4583 30.0152 51.6459 29.9516V31.3866C51.2482 31.5404 50.826 31.6172 50.4009 31.6132C49.6482 31.6769 48.9394 31.2429 48.639 30.5342C47.7036 31.31 46.5302 31.7227 45.3261 31.6995C43.733 31.6995 42.256 30.804 42.256 28.9482C42.256 26.65 44.3661 25.9379 46.1702 25.9379C46.9402 25.9505 47.707 26.0408 48.4596 26.2076V25.884C48.4596 24.805 47.6578 23.9742 46.1491 23.9742C45.0585 23.9764 43.9804 24.2116 42.9839 24.6647V22.8305C44.0678 22.451 45.204 22.2506 46.3495 22.2371C48.8394 22.2371 50.3693 23.4455 50.3693 26.1753V29.4121C50.3546 29.5668 50.401 29.721 50.4981 29.8406C50.5951 29.9601 50.7349 30.035 50.8862 30.0487H51.0656V30.0595ZM44.2711 28.8403C44.298 29.229 44.4761 29.5905 44.7655 29.844C45.055 30.0974 45.4317 30.2217 45.8115 30.189H45.9275C46.8819 30.1906 47.7973 29.8022 48.4702 29.11V27.5779C47.842 27.4414 47.2026 27.3655 46.5605 27.3513C45.5055 27.3513 44.2817 27.7074 44.2817 28.8403H44.2711ZM60.0229 22.9384C59.1962 22.4632 58.2596 22.2246 57.3115 22.2479H56.9422C55.7332 22.2873 54.5891 22.8166 53.7619 23.7192C52.9347 24.6218 52.4923 25.8236 52.5321 27.06V27.5024C52.6957 30.0004 54.805 31.8921 57.2482 31.7318C58.2519 31.7555 59.2477 31.5452 60.1601 31.1168V29.2718C59.3769 29.7215 58.4945 29.9591 57.5963 29.9624C56.5199 30.0288 55.4963 29.4793 54.9385 28.5356C54.3806 27.5918 54.3806 26.4095 54.9385 25.4658C55.4963 24.522 56.5199 23.9725 57.5963 24.039C58.461 24.0357 59.3066 24.2989 60.0229 24.7942V22.9384ZM70.1514 30.0595C70.3488 30.0515 70.5441 30.0152 70.7317 29.9516V31.3866C70.334 31.5404 69.9118 31.6172 69.4867 31.6132C68.734 31.6769 68.0252 31.2429 67.7248 30.5342C66.7894 31.31 65.616 31.7227 64.4119 31.6995C62.8188 31.6995 61.3417 30.804 61.3417 28.9482C61.3417 26.65 63.4518 25.9379 65.256 25.9379C66.0259 25.9505 66.7928 26.0408 67.5454 26.2076V25.884C67.5454 24.805 66.7436 23.9742 65.2349 23.9742C64.1443 23.9764 63.0662 24.2116 62.0697 24.6647V22.8305C63.1536 22.451 64.2897 22.2506 65.4353 22.2371C67.9252 22.2371 69.455 23.4455 69.455 26.1753V29.4121C69.4404 29.5668 69.4868 29.721 69.5838 29.8406C69.6809 29.9601 69.8207 30.035 69.972 30.0487H70.1514V30.0595ZM63.855 29.8481C63.5632 29.5943 63.3837 29.2311 63.3569 28.8403H63.378C63.378 27.7074 64.5385 27.3513 65.6569 27.3513C66.299 27.3655 66.9383 27.4414 67.5665 27.5779V29.11C66.8937 29.8022 65.9782 30.1906 65.0239 30.189H64.9078C64.5263 30.2247 64.1469 30.1019 63.855 29.8481ZM73.3271 26.9305C73.3271 25.2859 74.6308 23.9526 76.239 23.9526L76.2601 24.0066C77.4742 24.0066 78.5742 24.7382 79.0665 25.8732V28.0311C78.5856 29.1871 77.4673 29.9296 76.239 29.9084C74.6308 29.9084 73.3271 28.5752 73.3271 26.9305ZM87.3486 22.2479C90.8408 22.2479 92.0541 25.1395 91.4844 27.7397H84.922C85.1436 29.3582 86.6839 30.0163 88.2876 30.0163C89.2509 30.0196 90.2027 29.8021 91.0729 29.3797V31.1061C90.0736 31.5421 88.9939 31.7519 87.9078 31.7211C85.2385 31.7211 82.8963 30.189 82.8963 26.9521C82.8362 25.7502 83.2482 24.5736 84.0408 23.6841C84.8334 22.7945 85.9408 22.2658 87.1165 22.2155H87.3486V22.2479ZM84.8693 26.1753C84.9704 24.8237 86.1216 23.8104 87.4436 23.9095H87.4858C88.1064 23.8531 88.7196 24.08 89.1612 24.5295C89.6028 24.979 89.8275 25.6051 89.7752 26.24H84.8693V26.1753ZM93.489 31.4621V22.4961H95.2298V23.575C95.9777 22.7197 97.041 22.2229 98.1628 22.2047C99.2951 22.1328 100.371 22.7163 100.948 23.7153C101.741 22.8335 102.848 22.3161 104.018 22.2803C104.952 22.2327 105.859 22.6011 106.507 23.2901C107.154 23.9792 107.478 24.9213 107.394 25.8732V31.4837H105.39V25.9271C105.437 25.4734 105.306 25.0191 105.024 24.6647C104.743 24.3104 104.336 24.0852 103.892 24.039H103.617C102.751 24.0941 101.953 24.536 101.433 25.2474V31.4837H99.4289V25.9271C99.4728 25.47 99.3357 25.0139 99.0481 24.6611C98.7606 24.3082 98.3467 24.088 97.8991 24.0497H97.6881C96.7466 24.1344 95.8915 24.6449 95.3564 25.4416V31.5161H93.5312L93.489 31.4621ZM117.977 22.4745H115.972L113.324 29.2718L110.306 22.4853H108.196L112.417 31.5484L112.237 32.0016C111.72 33.3611 111.003 34.0516 110.053 34.0516C109.75 34.0548 109.447 34.0112 109.156 33.9221V35.6161C109.536 35.7125 109.926 35.7632 110.317 35.7671C111.646 35.7671 112.902 35.0226 113.851 32.6813L117.977 22.4745ZM56.689 6.78658V3.54974L54.7266 4.01369V6.73264H53.144V8.49132H54.7899V12.9905C54.7231 13.817 55.0244 14.6301 55.61 15.2038C56.1955 15.7775 57.0028 16.0505 57.8073 15.9468C58.5996 15.9535 59.3875 15.8259 60.139 15.5692V13.8429C59.5727 14.0781 58.9672 14.199 58.356 14.199C57.2165 14.199 56.689 13.8105 56.689 12.6237V8.5129H59.8541V6.78658H56.689ZM62.3862 15.7526V6.75421H64.1376V7.83316C64.8811 6.97655 65.9403 6.476 67.0601 6.45211C68.1624 6.38099 69.2146 6.93142 69.8032 7.88711C70.5958 7.00534 71.7028 6.48794 72.8734 6.45211C73.8138 6.41462 74.7233 6.79859 75.364 7.50353C76.0046 8.20846 76.3126 9.16418 76.2073 10.1205V15.7418H74.2028V10.1853C74.2499 9.73151 74.1184 9.27721 73.8373 8.92287C73.5561 8.56853 73.1485 8.34334 72.7046 8.29711H72.4619C71.5957 8.35228 70.797 8.7942 70.278 9.50553V15.7418H68.2734V10.1853C68.3206 9.73151 68.1891 9.27721 67.9079 8.92287C67.6268 8.56853 67.2191 8.34334 66.7752 8.29711H66.5326C65.5911 8.38181 64.736 8.89229 64.2009 9.68895V15.7634H62.3862V15.7526ZM32.6972 30.3033L32.7078 30.2968L32.6972 30.3184V30.3033ZM32.6972 18.3205V30.3033L19.3509 38.4321L6.00459 30.3184V18.5147L19.2876 26.6068V28.0311L10.1826 22.5284V23.9418L19.3404 29.5632V31.0629L10.1931 25.4955V26.9521L19.3509 32.5734L28.5826 26.9197V20.8129L32.6972 18.3205ZM32.7078 16.7776L29.0362 18.9355L27.3482 20.0145L19.3087 15.0837V16.4971L26.156 20.7266L26.0083 20.8237L24.9532 21.4063L19.2876 17.9537V19.3995L23.761 22.1184L22.706 22.8413L19.3298 20.7913V22.2047L21.5454 23.5426L19.2982 24.9021L6.11009 16.864L19.3087 8.72869L32.7078 16.7776ZM19.2876 7.27211L32.7078 15.3534V4.56395L19.3615 3.12895L6.01514 4.56395V15.3534L19.2876 7.27211Z" fill="#231F20"/>
</g>
<defs>
<filter id="filter0_d" x="0" y="0" width="123" height="49" filterUnits="userSpaceOnUse" color-interpolation-filters="sRGB">
<feFlood flood-opacity="0" result="BackgroundImageFix"/>
<feColorMatrix in="SourceAlpha" type="matrix" values="0 0 0 0 0 0 0 0 0 0 0 0 0 0 0 0 0 0 127 0"/>
<feOffset dy="4"/>
<feGaussianBlur stdDeviation="2"/>
<feColorMatrix type="matrix" values="0 0 0 0 0 0 0 0 0 0 0 0 0 0 0 0 0 0 0.25 0"/>
<feBlend mode="normal" in2="BackgroundImageFix" result="effect1_dropShadow"/>
<feBlend mode="normal" in="SourceGraphic" in2="effect1_dropShadow" result="shape"/>
</filter>
</defs>
</svg>

<svg width="122" height="49" fill="none" xmlns="http://www.w3.org/2000/svg"><g filter="url(#filter0_d)"><path fill-rule="evenodd" clip-rule="evenodd" d="M19.52 1.06h-.17L4 2.72v28.77l15.35 9.35 15.35-9.35V2.72L19.52 1.06zm61.5 1.56h-1.93v13.11h1.93V2.63zm-36.16.01v5.14a3.98 3.98 0 012.85-1.23c.97-.06 1.92.3 2.62 1 .69.7 1.06 1.67 1.01 2.67v5.55h-1.97v-5.3c.05-.51-.1-1.03-.41-1.43a1.9 1.9 0 00-1.3-.72h-.3c-1.01.06-1.93.62-2.46 1.5v5.95h-2V2.63h1.96zm36.16 28.85h-1.74v-1.42a4.06 4.06 0 01-3.37 1.66 4.7 4.7 0 01-4.33-4.74 4.7 4.7 0 014.33-4.73c1.21-.04 2.37.47 3.17 1.4v-5.33h1.94v13.16zm-29.95-1.42c.2 0 .39-.04.58-.1v1.43c-.4.15-.82.23-1.25.22a1.76 1.76 0 01-1.76-1.08 5.04 5.04 0 01-3.31 1.17c-1.6 0-3.07-.9-3.07-2.75 0-2.3 2.1-3.01 3.91-3.01.77.01 1.54.1 2.29.27v-.33c0-1.07-.8-1.9-2.31-1.9-1.1 0-2.17.23-3.17.68v-1.83c1.09-.38 2.22-.58 3.37-.6 2.49 0 4.02 1.22 4.02 3.95v3.23a.6.6 0 00.13.43c.1.12.23.2.39.2h.18v.02zm-6.8-1.22c.03.39.2.75.5 1 .28.26.66.38 1.04.35h.12c.95 0 1.87-.39 2.54-1.08v-1.53c-.63-.14-1.27-.21-1.91-.23-1.05 0-2.28.36-2.28 1.49zm15.75-5.9a5.18 5.18 0 00-2.7-.7h-.38c-1.2.05-2.35.58-3.18 1.48-.83.9-1.27 2.1-1.23 3.34v.44a4.48 4.48 0 004.72 4.23c1 .03 2-.18 2.91-.61v-1.85c-.78.45-1.67.69-2.56.7a2.88 2.88 0 01-2.66-1.43 3.02 3.02 0 010-3.07 2.88 2.88 0 012.66-1.43c.86 0 1.7.26 2.42.75v-1.85zm10.13 7.12c.2 0 .4-.04.58-.1v1.43c-.4.15-.82.23-1.24.22a1.76 1.76 0 01-1.77-1.08 5.04 5.04 0 01-3.3 1.17c-1.6 0-3.08-.9-3.08-2.75 0-2.3 2.11-3.01 3.92-3.01.77.01 1.53.1 2.29.27v-.33c0-1.07-.8-1.9-2.32-1.9-1.09 0-2.16.23-3.16.68v-1.83c1.08-.38 2.22-.58 3.37-.6 2.49 0 4.02 1.22 4.02 3.95v3.23a.6.6 0 00.12.43c.1.12.24.2.4.2h.17v.02zm-6.3-.21c-.29-.26-.47-.62-.5-1.01h.03c0-1.13 1.16-1.49 2.28-1.49.64.02 1.28.1 1.9.23v1.53a3.54 3.54 0 01-2.54 1.08h-.11a1.4 1.4 0 01-1.05-.34zm9.48-2.92c0-1.64 1.3-2.98 2.9-2.98l.03.06c1.21 0 2.31.73 2.8 1.86v2.16a3.02 3.02 0 01-2.82 1.88 2.95 2.95 0 01-2.91-2.98zm14.02-4.68c3.5 0 4.7 2.89 4.13 5.49h-6.56c.22 1.62 1.76 2.28 3.37 2.28.96 0 1.91-.22 2.78-.64v1.73c-1 .43-2.08.64-3.16.61-2.67 0-5.01-1.53-5.01-4.77a4.57 4.57 0 011.14-3.27c.8-.89 1.9-1.41 3.08-1.46h.23v.03zm-2.48 3.93a2.42 2.42 0 012.57-2.27h.05c.62-.06 1.23.17 1.67.62.44.45.67 1.08.62 1.71h-4.91v-.06zm8.62 5.28V22.5h1.74v1.07a3.98 3.98 0 012.93-1.37 3 3 0 012.79 1.52 4.3 4.3 0 013.07-1.44 3.2 3.2 0 012.49 1.01c.64.69.97 1.63.88 2.58v5.61h-2v-5.55c.05-.46-.08-.91-.37-1.27a1.67 1.67 0 00-1.13-.62h-.27c-.87.05-1.67.5-2.19 1.2v6.24h-2v-5.55c.04-.46-.1-.92-.38-1.27-.29-.35-.7-.57-1.15-.61h-.21c-.94.08-1.8.6-2.33 1.4v6.07h-1.83l-.04-.06zm24.49-8.99h-2l-2.66 6.8-3.01-6.78h-2.11l4.22 9.06-.18.45c-.52 1.36-1.24 2.05-2.19 2.05-.3 0-.6-.04-.9-.13v1.7c.39.1.78.14 1.17.15 1.33 0 2.58-.75 3.53-3.09l4.13-10.2zM56.68 6.8V3.55l-1.95.46v2.72h-1.59V8.5h1.65V13c-.07.83.23 1.64.82 2.21.59.58 1.4.85 2.2.75.79 0 1.58-.12 2.33-.38v-1.73c-.57.24-1.17.36-1.78.36-1.14 0-1.67-.39-1.67-1.58v-4.1h3.16V6.78H56.7zm5.7 8.96v-9h1.76v1.08a3.98 3.98 0 012.92-1.38A3 3 0 0169.8 7.9a4.3 4.3 0 013.07-1.44 3.2 3.2 0 012.5 1.05c.63.7.94 1.66.84 2.62v5.62h-2V10.2c.04-.46-.1-.91-.37-1.27a1.67 1.67 0 00-1.14-.62h-.24c-.86.05-1.66.5-2.18 1.2v6.24h-2V10.2c.04-.46-.1-.91-.37-1.27a1.67 1.67 0 00-1.13-.62h-.25c-.94.08-1.8.6-2.33 1.39v6.07H62.4zM32.7 30.3v.02-.02zm0-11.98V30.3l-13.35 8.13L6 30.32v-11.8L19.3 26.6v1.42l-9.1-5.5v1.41l9.15 5.62v1.5l-9.15-5.56v1.45l9.16 5.62 9.23-5.65v-6.1l4.12-2.5zm0-1.54l-3.66 2.16-1.7 1.07-8.03-4.93v1.42l6.85 4.23-.15.1-1.06.58-5.66-3.46v1.45l4.47 2.72-1.05.72-3.38-2.05v1.41l2.22 1.34-2.25 1.36L6.1 16.86l13.2-8.13 13.4 8.05zM19.3 7.28l13.42 8.07V4.56L19.36 3.13 6.02 4.56v10.8l13.27-8.09z" fill="#231F20"/></g><defs><filter id="filter0_d" x="0" y="0" width="123" height="49" filterUnits="userSpaceOnUse" color-interpolation-filters="sRGB"><feFlood flood-opacity="0" result="BackgroundImageFix"/><feColorMatrix in="SourceAlpha" values="0 0 0 0 0 0 0 0 0 0 0 0 0 0 0 0 0 0 127 0"/><feOffset dy="4"/><feGaussianBlur stdDeviation="2"/><feColorMatrix values="0 0 0 0 0 0 0 0 0 0 0 0 0 0 0 0 0 0 0.25 0"/><feBlend in2="BackgroundImageFix" result="effect1_dropShadow"/><feBlend in="SourceGraphic" in2="effect1_dropShadow" result="shape"/></filter></defs></svg>
